packages/ui-icons/src/Basic/16/Alcohol-counting_16.svg

<svg xmlns="http://www.w3.org/2000/svg" viewBox="0 0 20 20"><path d="M15 10.5V9h-3v-.72A3.86 3.86 0 0 0 10 5V2H6v3a4.09 4.09 0 0 0-2 3.53V18h10v-1h-2v-3a3.51 3.51 0 0 0 3-3.5Zm-1 0a2.52 2.52 0 0 1-2.52 2.5A2.49 2.49 0 0 1 9 10.5V10h5ZM9 17H5V8.53a3.08 3.08 0 0 1 1.7-2.79L7 5.6V3h2v2.6l.26.14A2.94 2.94 0 0 1 11 8.28V9H8v1.5a3.48 3.48 0 0 0 3 3.5v3Z"/></svg>

<svg id="ready" xmlns="http://www.w3.org/2000/svg" viewBox="0 0 20 20"><title>Megaicons_work_16_1.8_cp</title><path d="M15,10.5V9H12V8.28A3.86,3.86,0,0,0,10,5V2H6V5A4.09,4.09,0,0,0,4,8.53V18H14V17H12v-3A3.51,3.51,0,0,0,15,10.5Zm-1,0A2.52,2.52,0,0,1,11.48,13,2.49,2.49,0,0,1,9,10.5V10h5ZM9,17H5V8.53A3.08,3.08,0,0,1,6.7,5.74L7,5.6V3H9V5.6l.26.14A2.94,2.94,0,0,1,11,8.28V9H8v1.5A3.48,3.48,0,0,0,11,14v3Z"/></svg>
